X: 32558
T: Planxty George Randall
R: waltz
M: 3/4
K: Dmajor
|:A2 d3 A|B2 e3 B|A2 d2 A2|fe dc d2|e3 f g2|e3 c A2|dc e2 d2|d6:|
fg a3 f|A2 d2 A2|f2 g3 d|B2 d3 e|f2 a3 A|dd A2 f2|a3 g d<A|B4 AB|
G3 B d2|a2 g2 f2|g3 a cd|e3 A df|e3 G Bd|c2 d2 e2|a3 g d<A|d6||

